X: 70
T:Polka (Antwerp)
M:2/4
L:1/16
R:Polka
Z:Steve Mansfield
K:Dm
bgeg bgeg | afef afef | gece gece | fefg a2f2 | bgeg bgeg |
afef afef | gece gece|f8 :: c2Ac d2cB | Acfg a2f2 | g2eg bgeg |
fefg a2f2 | c2Ac d2cB | Acfg a2f2 | bgeg bgeg | f8 :|
<end>
<start>
